dist/images/svg/sprite/arcticons-money-manager.svg

<svg width="32" height="32" viewBox="0 0 32 32" fill="none" xmlns="http://www.w3.org/2000/svg">
<path d="M5.38137 13.8179C5.82958 12.3587 6.67074 11.0509 7.81271 10.0379C7.19137 9.54123 7.81271 6.4539 7.81271 6.4539C7.81271 6.4539 10.2967 7.5539 10.7407 8.06856C10.7407 8.06856 12.6567 5.7439 18.2114 5.7439C23.766 5.7439 29 10.0386 29 15.7699C29 21.5012 24.8474 23.3292 24.8474 23.3292C24.6311 24.3405 24.2977 25.3231 23.854 26.2572H21.6534C21.3023 25.7171 20.9883 25.1538 20.7134 24.5712C20.7134 24.5712 18.9567 24.7846 17.6967 24.7846C16.8088 24.7665 15.9242 24.6715 15.0527 24.5006C14.9775 25.1247 14.7653 25.7246 14.4314 26.2572H12.036C11.2907 25.6186 10.918 23.6132 10.918 23.6132C10.918 23.6132 4.88471 20.8806 3.60671 19.2472C2.91404 17.9519 3.00271 15.0772 3.00271 15.0772C3.67359 14.4594 4.49273 14.0254 5.38071 13.8172L5.38137 13.8179Z" stroke="black" stroke-width="0.551515" stroke-linecap="round" stroke-linejoin="round"/>
<path d="M13.0293 9.18646C14.451 8.16428 16.1787 7.65728 17.9273 7.74913C19.8378 7.71769 21.7066 8.30955 23.2506 9.43513" stroke="black" stroke-width="0.551515" stroke-linecap="round" stroke-linejoin="round"/>
<path d="M7.74146 14.6907C8.0176 14.6907 8.24146 14.4668 8.24146 14.1907C8.24146 13.9145 8.0176 13.6907 7.74146 13.6907C7.46531 13.6907 7.24146 13.9145 7.24146 14.1907C7.24146 14.4668 7.46531 14.6907 7.74146 14.6907Z" fill="black"/>
</svg>

<svg width="32" height="32" fill="none" xmlns="http://www.w3.org/2000/svg"><path d="M5.381 13.818a8.318 8.318 0 0 1 2.432-3.78c-.622-.497 0-3.584 0-3.584s2.484 1.1 2.928 1.615c0 0 1.916-2.325 7.47-2.325C23.766 5.744 29 10.039 29 15.77s-4.153 7.56-4.153 7.56a13.315 13.315 0 0 1-.993 2.927h-2.2a14.252 14.252 0 0 1-.94-1.686s-1.757.214-3.017.214a15.367 15.367 0 0 1-2.644-.284 4.269 4.269 0 0 1-.622 1.756h-2.395c-.745-.638-1.118-2.644-1.118-2.644s-6.033-2.732-7.311-4.366c-.693-1.295-.604-4.17-.604-4.17a5.295 5.295 0 0 1 2.378-1.26h0Z" stroke="#000" stroke-width=".552" stroke-linecap="round" stroke-linejoin="round"/><path d="M13.03 9.186a7.699 7.699 0 0 1 4.897-1.437c1.91-.031 3.78.56 5.324 1.686" stroke="#000" stroke-width=".552" stroke-linecap="round" stroke-linejoin="round"/><path d="M7.741 14.69a.5.5 0 1 0 0-1 .5.5 0 0 0 0 1Z" fill="#000"/></svg>
